dist/img-full/google-play.svg

<svg width="132" height="45" viewBox="0 0 132 45" fill="none" xmlns="http://www.w3.org/2000/svg">
<path d="M126.7 0H5.3C2.37289 0 0 2.37289 0 5.3V39.6C0 42.5271 2.37289 44.9 5.3 44.9H126.7C129.627 44.9 132 42.5271 132 39.6V5.3C132 2.37289 129.627 0 126.7 0Z" fill="white"/>
<path d="M13.7 8.49995C13.4 8.79995 13.3 9.29995 13.3 9.89995V32.7C13.3 33.3 13.3 33.6999 13.7 34.0999L26.7 21.4V21.2L13.7 8.19995V8.39995V8.49995Z" fill="#5BC9F4"/>
<path d="M31 25.7999L26.6 21.4999V21.2999L30.9 16.8999L35.9 19.8999C37.4 20.5999 37.4 21.8999 35.9 22.8999L30.9 25.6999L31 25.7999Z" fill="url(#paint0_linear_543_3480)"/>
<path d="M31 25.7001L26.6 21.3L13.6 34.3C14.2 34.7 15 34.8 15.9 34.3L30.9 25.7001" fill="url(#paint1_linear_543_3480)"/>
<path d="M31 16.9999L16 8.3999C15 7.8999 14.2 7.8999 13.7 8.3999L26.7 21.3999L31 16.9999Z" fill="url(#paint2_linear_543_3480)"/>
<path d="M47.7224 18.3324V16.1204H48.1303C48.2703 15.9927 48.4021 15.8124 48.5257 15.5797C48.6513 15.3449 48.7574 15.0318 48.8439 14.6405C48.9325 14.2471 48.9912 13.7476 49.02 13.1421L49.156 10.4728H52.9128V16.1204H53.6419V18.3201H52.9128V16.8H48.4516V18.3324H47.7224ZM49.0447 16.1204H52.1837V11.1525H49.848L49.7491 13.1421C49.7244 13.6035 49.6812 14.0216 49.6194 14.3964C49.5576 14.7692 49.4783 15.0998 49.3815 15.3882C49.2847 15.6744 49.1724 15.9185 49.0447 16.1204ZM56.6287 16.8989C56.2003 16.8989 55.8244 16.797 55.501 16.5931C55.1797 16.3891 54.9284 16.1039 54.7472 15.7373C54.568 15.3706 54.4784 14.9422 54.4784 14.452C54.4784 13.9577 54.568 13.5262 54.7472 13.1575C54.9284 12.7889 55.1797 12.5026 55.501 12.2987C55.8244 12.0948 56.2003 11.9928 56.6287 11.9928C57.0571 11.9928 57.4319 12.0948 57.7532 12.2987C58.0766 12.5026 58.3279 12.7889 58.5071 13.1575C58.6883 13.5262 58.779 13.9577 58.779 14.452C58.779 14.9422 58.6883 15.3706 58.5071 15.7373C58.3279 16.1039 58.0766 16.3891 57.7532 16.5931C57.4319 16.797 57.0571 16.8989 56.6287 16.8989ZM56.6287 16.2439C56.9541 16.2439 57.2218 16.1605 57.4319 15.9937C57.642 15.8269 57.7975 15.6075 57.8984 15.3356C57.9994 15.0638 58.0498 14.7692 58.0498 14.452C58.0498 14.1348 57.9994 13.8393 57.8984 13.5654C57.7975 13.2914 57.642 13.07 57.4319 12.9011C57.2218 12.7322 56.9541 12.6478 56.6287 12.6478C56.3032 12.6478 56.0355 12.7322 55.8254 12.9011C55.6153 13.07 55.4598 13.2914 55.3589 13.5654C55.258 13.8393 55.2075 14.1348 55.2075 14.452C55.2075 14.7692 55.258 15.0638 55.3589 15.3356C55.4598 15.6075 55.6153 15.8269 55.8254 15.9937C56.0355 16.1605 56.3032 16.2439 56.6287 16.2439ZM61.8198 16.8989C61.3749 16.8989 60.9918 16.7939 60.6705 16.5838C60.3492 16.3737 60.102 16.0843 59.929 15.7156C59.756 15.347 59.6695 14.9258 59.6695 14.452C59.6695 13.9701 59.7581 13.5448 59.9352 13.1761C60.1144 12.8053 60.3636 12.516 60.6828 12.3079C61.0042 12.0978 61.379 11.9928 61.8074 11.9928C62.1411 11.9928 62.4418 12.0546 62.7096 12.1782C62.9773 12.3018 63.1967 12.4748 63.3676 12.6972C63.5386 12.9197 63.6446 13.1792 63.6858 13.4758H62.9567C62.9011 13.2595 62.7775 13.0679 62.586 12.9011C62.3965 12.7322 62.1411 12.6478 61.8198 12.6478C61.5355 12.6478 61.2863 12.7219 61.0721 12.8702C60.86 13.0165 60.6942 13.2235 60.5747 13.4912C60.4573 13.7569 60.3986 14.0689 60.3986 14.4273C60.3986 14.7939 60.4563 15.1132 60.5716 15.3851C60.689 15.6569 60.8538 15.8681 61.0659 16.0184C61.2801 16.1688 61.5314 16.2439 61.8198 16.2439C62.0093 16.2439 62.1812 16.211 62.3357 16.1451C62.4902 16.0792 62.621 15.9844 62.7281 15.8608C62.8352 15.7373 62.9114 15.589 62.9567 15.416H63.6858C63.6446 15.6961 63.5427 15.9484 63.38 16.1729C63.2193 16.3953 63.0061 16.5725 62.7404 16.7043C62.4768 16.834 62.1699 16.8989 61.8198 16.8989ZM64.3779 12.7343V12.0546H68.2336V12.7343H66.6765V16.8H65.9473V12.7343H64.3779ZM69.7667 18.5796C69.6431 18.5796 69.5329 18.5693 69.4361 18.5487C69.3393 18.5302 69.2724 18.5116 69.2353 18.4931L69.4207 17.8505C69.5978 17.8958 69.7544 17.9123 69.8903 17.8999C70.0262 17.8875 70.1467 17.8268 70.2518 17.7176C70.3589 17.6105 70.4567 17.4365 70.5453 17.1955L70.6812 16.8248L68.9264 12.0546H69.7173L71.0272 15.8361H71.0767L72.3866 12.0546H73.1775L71.1632 17.4921C71.0725 17.7372 70.9603 17.9401 70.8264 18.1007C70.6925 18.2634 70.537 18.3839 70.3599 18.4622C70.1848 18.5405 69.9871 18.5796 69.7667 18.5796ZM74.1399 16.8V12.0546H77.872V16.8H77.1429V12.7343H74.869V16.8H74.1399ZM82.3796 14.0937V14.7733H79.7597V14.0937H82.3796ZM79.9327 12.0546V16.8H79.2036V12.0546H79.9327ZM82.9357 12.0546V16.8H82.2065V12.0546H82.9357ZM86.1951 16.8989C85.7667 16.8989 85.3908 16.797 85.0674 16.5931C84.7461 16.3891 84.4948 16.1039 84.3136 15.7373C84.1344 15.3706 84.0448 14.9422 84.0448 14.452C84.0448 13.9577 84.1344 13.5262 84.3136 13.1575C84.4948 12.7889 84.7461 12.5026 85.0674 12.2987C85.3908 12.0948 85.7667 11.9928 86.1951 11.9928C86.6235 11.9928 86.9983 12.0948 87.3196 12.2987C87.643 12.5026 87.8943 12.7889 88.0735 13.1575C88.2547 13.5262 88.3454 13.9577 88.3454 14.452C88.3454 14.9422 88.2547 15.3706 88.0735 15.7373C87.8943 16.1039 87.643 16.3891 87.3196 16.5931C86.9983 16.797 86.6235 16.8989 86.1951 16.8989ZM86.1951 16.2439C86.5205 16.2439 86.7883 16.1605 86.9983 15.9937C87.2084 15.8269 87.3639 15.6075 87.4648 15.3356C87.5658 15.0638 87.6162 14.7692 87.6162 14.452C87.6162 14.1348 87.5658 13.8393 87.4648 13.5654C87.3639 13.2914 87.2084 13.07 86.9983 12.9011C86.7883 12.7322 86.5205 12.6478 86.1951 12.6478C85.8696 12.6478 85.6019 12.7322 85.3918 12.9011C85.1817 13.07 85.0262 13.2914 84.9253 13.5654C84.8244 13.8393 84.7739 14.1348 84.7739 14.452C84.7739 14.7692 84.8244 15.0638 84.9253 15.3356C85.0262 15.6075 85.1817 15.8269 85.3918 15.9937C85.6019 16.1605 85.8696 16.2439 86.1951 16.2439ZM95.0812 14.0937V14.7733H92.4613V14.0937H95.0812ZM92.6343 12.0546V16.8H91.9052V12.0546H92.6343ZM95.6373 12.0546V16.8H94.9082V12.0546H95.6373ZM98.3653 16.9113C98.0646 16.9113 97.7917 16.8546 97.5466 16.7413C97.3015 16.626 97.1069 16.4602 96.9627 16.2439C96.8185 16.0256 96.7464 15.762 96.7464 15.453C96.7464 15.1812 96.8 14.9608 96.9071 14.7919C97.0142 14.6209 97.1573 14.4871 97.3365 14.3902C97.5157 14.2934 97.7135 14.2214 97.9297 14.174C98.148 14.1246 98.3674 14.0854 98.5878 14.0566C98.8761 14.0195 99.1099 13.9917 99.2891 13.9732C99.4703 13.9526 99.6022 13.9186 99.6845 13.8712C99.769 13.8238 99.8112 13.7415 99.8112 13.6241V13.5993C99.8112 13.2945 99.7278 13.0576 99.561 12.8888C99.3962 12.7199 99.1459 12.6354 98.8102 12.6354C98.4621 12.6354 98.1892 12.7116 97.9915 12.864C97.7938 13.0165 97.6548 13.1792 97.5744 13.3522L96.8824 13.105C97.006 12.8167 97.1707 12.5922 97.3767 12.4315C97.5847 12.2688 97.8113 12.1555 98.0564 12.0917C98.3035 12.0258 98.5466 11.9928 98.7855 11.9928C98.9379 11.9928 99.113 12.0113 99.3107 12.0484C99.5105 12.0834 99.7031 12.1565 99.8885 12.2678C100.076 12.379 100.231 12.5469 100.355 12.7714C100.479 12.9959 100.54 13.2966 100.54 13.6735V16.8H99.8112V16.1574H99.7741C99.7247 16.2604 99.6423 16.3706 99.527 16.488C99.4116 16.6054 99.2582 16.7053 99.0667 16.7877C98.8751 16.8701 98.6413 16.9113 98.3653 16.9113ZM98.4766 16.2563C98.7649 16.2563 99.008 16.1997 99.2057 16.0864C99.4055 15.9731 99.5558 15.8269 99.6567 15.6477C99.7597 15.4685 99.8112 15.28 99.8112 15.0823V14.415C99.7803 14.452 99.7124 14.486 99.6073 14.5169C99.5043 14.5458 99.3849 14.5715 99.2489 14.5942C99.1151 14.6148 98.9843 14.6333 98.8566 14.6498C98.7309 14.6642 98.629 14.6765 98.5507 14.6868C98.3612 14.7116 98.1841 14.7517 98.0193 14.8073C97.8566 14.8609 97.7248 14.9422 97.6239 15.0514C97.525 15.1585 97.4756 15.3047 97.4756 15.4901C97.4756 15.7434 97.5693 15.935 97.7567 16.0648C97.9462 16.1924 98.1861 16.2563 98.4766 16.2563Z" fill="black"/>
<path fill-rule="evenodd" clip-rule="evenodd" d="M103.2 32.7H104.8V22H103.2V32.7ZM117.7 25.7L115.7 30.4L113.9 25.7999H111.9L114.9 32.2999L113.3 35.9H114.9L119.4 25.7H117.6H117.7ZM108.5 31.4C108 31.4 107.3 31.2 107.3 30.4C107.3 29.7 108.3 29.4 109 29.4C109.7 29.4 110 29.4 110.5 29.7C110.3 30.7 109.5 31.4 108.5 31.4ZM108.7 25.4C107.7 25.4 106.4 26 105.9 27.2L107.2 27.7999C107.5 27.1999 108.2 27 108.7 27C109.5 27 110.3 27.4999 110.4 28.4C110.1 28.4 109.4 28.1 108.7 28.1C107.1 28.1 105.7 29.1 105.7 30.6C105.7 32 106.7 33 108.3 33C109.3 33 109.9 32.4 110.3 31.7999V32.5999H111.9V28.6C111.9 26.6 110.5 25.6 108.6 25.6L108.7 25.4ZM98.7 27.1H96.5V23.5H98.8C100 23.5 100.8 24.4999 100.8 25.2999C100.8 26.2999 100 27.2999 98.8 27.2999L98.7 27.1ZM98.7 22.1H95V32.7999H96.5V28.7999H98.8C100.5 28.7999 102.3 27.3999 102.3 25.2999C102.3 23.2999 100.5 22 98.8 22L98.7 22.1ZM77.7 31.5C76.7 31.5 75.7 30.4999 75.7 29.2999C75.7 27.9999 76.7 27.1 77.7 27.1C78.7 27.1 79.7 28.0999 79.7 29.2999C79.7 30.5999 78.7 31.5 77.7 31.5ZM79.7 26.5H79.5C79.2 26 78.5 25.5 77.5 25.5C75.8 25.5 74.1 27.2999 74.1 29.2999C74.1 31.2999 75.9 33 77.7 33C78.7 33 79.3 32.5 79.7 32V32.5999C79.7 33.9999 78.9 34.5999 77.7 34.5999C76.7 34.5999 76.1 34 75.9 33.4L74.5 34C74.9 35 76 36.2 77.7 36.2C79.7 36.2 81.2 35.2 81.2 32.2V26H79.8V26.6L79.7 26.5ZM82.2 32.7999H83.8V22H82.2V32.7V32.7999ZM86.2 29.2C86.2 27.9 87.2 27.2 88.2 27.2C88.8 27.2 89.2 27.4999 89.5 27.9L86.2 29V29.2ZM91.2 28.2C90.9 27.2 90 25.7 88.2 25.7C86.2 25.7 84.6 27.2 84.6 29.4C84.6 31.4 86.2 33.0999 88.3 33.0999C89.9 33.0999 90.9 31.9 91.3 31.4L90.1 30.4C89.7 31.0999 89.1 31.4 88.4 31.4C87.4 31.4 87 31.2 86.6 30.4L91.6 28.4L91.3 28L91.2 28.2ZM52.2 26.9V28.4H56C55.8 29.4 55.5 29.9 55 30.4C54.5 30.9 53.6 31.4 52.2 31.4C49.9 31.4 48.2 29.7 48.2 27.4C48.2 25.1 49.9 23.2 52.2 23.2C53.4 23.2 54.2 23.6999 55 24.4L56 23.4C55 22.4 54 21.7 52.2 21.7C49 21.7 46.4 24.1999 46.4 27.4C46.4 30.4 49 33.0999 52.2 33.0999C53.8 33.0999 55.2 32.4 56.2 31.4C57.2 30.4 57.5 28.9 57.5 27.7V26.7H52L52.2 26.9ZM61.7 31.6C60.7 31.6 59.7 30.5999 59.7 29.4C59.7 28.0999 60.7 27.2 61.7 27.2C62.7 27.2 63.7 28.2 63.7 29.4C63.7 30.7 62.7 31.6 61.7 31.6ZM61.7 25.6C59.7 25.6 58 27.3 58 29.4C58 31.4 59.7 33.0999 61.7 33.0999C63.7 33.0999 65.4 31.4 65.4 29.2999C65.4 27.2999 63.7 25.6 61.7 25.6ZM69.7 31.6C68.7 31.6 67.7 30.5999 67.7 29.4C67.7 28.0999 68.7 27.2 69.7 27.2C70.7 27.2 71.7 28.2 71.7 29.4C71.7 30.7 70.7 31.6 69.7 31.6ZM69.7 25.6C67.7 25.6 66.1 27.3 66.1 29.4C66.1 31.4 67.8 33.0999 69.8 33.0999C71.8 33.0999 73.5 31.4 73.5 29.2999C73.5 27.2999 71.9 25.6 69.8 25.6H69.7Z" fill="black"/>
<defs>
<linearGradient id="paint0_linear_543_3480" x1="35.0234" y1="21.341" x2="10.1597" y2="21.341" gradientUnits="userSpaceOnUse">
<stop stop-color="#FEE000"/>
<stop offset="0.194" stop-color="#FCCF0B"/>
<stop offset="0.547" stop-color="#FAB318"/>
<stop offset="0.828" stop-color="#F9A21B"/>
<stop offset="1" stop-color="#F99B1C"/>
</linearGradient>
<linearGradient id="paint1_linear_543_3480" x1="28.6162" y1="23.6876" x2="12.1056" y2="51.5797" gradientUnits="userSpaceOnUse">
<stop stop-color="#EF4547"/>
<stop offset="1" stop-color="#C6186D"/>
</linearGradient>
<linearGradient id="paint2_linear_543_3480" x1="4.94615" y1="-4.74822" x2="18.4829" y2="17.9838" gradientUnits="userSpaceOnUse">
<stop stop-color="#279E6F"/>
<stop offset="0.317" stop-color="#4DAB6D"/>
<stop offset="0.74" stop-color="#6ABA6A"/>
<stop offset="1" stop-color="#74C169"/>
</linearGradient>
</defs>
</svg>

<svg width="132" height="45" fill="none" xmlns="http://www.w3.org/2000/svg"><path d="M126.7 0H5.3A5.3 5.3 0 000 5.3v34.3a5.3 5.3 0 005.3 5.3h121.4a5.3 5.3 0 005.3-5.3V5.3a5.3 5.3 0 00-5.3-5.3z" fill="#fff"/><path d="M13.7 8.5c-.3.3-.4.8-.4 1.4v22.8c0 .6 0 1 .4 1.4l13-12.7v-.2l-13-13v.3z" fill="#5BC9F4"/><path d="M31 25.8l-4.4-4.3v-.2l4.3-4.4 5 3c1.5.7 1.5 2 0 3l-5 2.8.1.1z" fill="url(#paint0_linear_543_3480)"/><path d="M31 25.7l-4.4-4.4-13 13c.6.4 1.4.5 2.3 0l15-8.6" fill="url(#paint1_linear_543_3480)"/><path d="M31 17L16 8.4c-1-.5-1.8-.5-2.3 0l13 13L31 17z" fill="url(#paint2_linear_543_3480)"/><path d="M47.722 18.332V16.12h.408c.14-.127.272-.308.396-.54.125-.235.231-.548.318-.94a8.94 8.94 0 00.176-1.498l.136-2.67h3.757v5.648h.729v2.2h-.73V16.8h-4.46v1.532h-.73zm1.323-2.212h3.139v-4.968h-2.336l-.099 1.99c-.025.462-.068.88-.13 1.254a6.446 6.446 0 01-.237.992 3.42 3.42 0 01-.337.732zm7.584.779a2.07 2.07 0 01-1.128-.306 2.078 2.078 0 01-.754-.856c-.179-.366-.269-.795-.269-1.285 0-.494.09-.926.27-1.294.18-.37.432-.655.753-.86a2.07 2.07 0 011.128-.305c.428 0 .803.102 1.124.306.324.204.575.49.754.859.181.368.272.8.272 1.294 0 .49-.09.919-.272 1.285a2.05 2.05 0 01-.754.856 2.053 2.053 0 01-1.124.306zm0-.655c.325 0 .593-.084.803-.25.21-.167.365-.386.466-.658.101-.272.152-.567.152-.884 0-.317-.05-.613-.152-.887a1.494 1.494 0 00-.466-.664c-.21-.169-.478-.253-.803-.253-.326 0-.593.084-.804.253-.21.169-.365.39-.466.664-.101.274-.151.57-.151.887 0 .317.05.612.15.884.102.271.257.49.467.658.21.166.478.25.804.25zm5.19.655c-.444 0-.827-.105-1.149-.315-.32-.21-.568-.5-.741-.868a2.941 2.941 0 01-.26-1.264c0-.482.09-.907.266-1.276a2.1 2.1 0 01.748-.868c.321-.21.696-.315 1.124-.315.334 0 .635.062.903.185.267.124.487.297.658.52.17.222.277.481.318.778h-.73a1.13 1.13 0 00-.37-.575c-.19-.169-.445-.253-.766-.253a1.28 1.28 0 00-.748.222 1.45 1.45 0 00-.497.621 2.3 2.3 0 00-.176.936c0 .367.057.686.173.958.117.272.282.483.494.633.214.15.465.226.754.226a1.3 1.3 0 00.516-.099 1.064 1.064 0 00.62-.729h.73a1.69 1.69 0 01-.946 1.288c-.263.13-.57.195-.92.195zm2.559-4.165v-.68h3.856v.68h-1.557V16.8h-.73v-4.066h-1.57zm5.389 5.846a1.597 1.597 0 01-.532-.087l.186-.642c.177.045.333.061.47.049a.563.563 0 00.36-.182c.108-.108.206-.282.294-.523l.136-.37-1.755-4.77h.791l1.31 3.781h.05l1.31-3.781h.79l-2.014 5.437c-.09.245-.203.448-.337.609a1.258 1.258 0 01-.466.361 1.438 1.438 0 01-.593.118zm4.373-1.78v-4.745h3.732V16.8h-.73v-4.066H74.87V16.8h-.73zm8.24-2.706v.68h-2.62v-.68h2.62zm-2.447-2.04V16.8h-.73v-4.745h.73zm3.003 0V16.8h-.73v-4.745h.73zm3.26 4.845a2.07 2.07 0 01-1.129-.306 2.078 2.078 0 01-.753-.856c-.18-.366-.27-.795-.27-1.285 0-.494.09-.926.27-1.294.18-.37.432-.655.753-.86a2.07 2.07 0 011.128-.305c.429 0 .803.102 1.125.306.323.204.574.49.754.859.18.368.271.8.271 1.294 0 .49-.09.919-.272 1.285a2.05 2.05 0 01-.753.856 2.053 2.053 0 01-1.125.306zm0-.655c.325 0 .592-.084.802-.25.21-.167.366-.386.467-.658.1-.272.151-.567.151-.884 0-.317-.05-.613-.151-.887a1.494 1.494 0 00-.467-.664c-.21-.169-.478-.253-.803-.253-.325 0-.593.084-.803.253-.21.169-.366.39-.467.664-.1.274-.151.57-.151.887 0 .317.05.612.151.884.101.271.257.49.467.658.21.166.478.25.803.25zm8.885-2.15v.68h-2.62v-.68h2.62zm-2.447-2.04V16.8h-.729v-4.745h.73zm3.003 0V16.8h-.729v-4.745h.73zm2.728 4.857c-.3 0-.573-.056-.818-.17a1.405 1.405 0 01-.584-.497 1.403 1.403 0 01-.217-.791c0-.272.054-.492.161-.661.107-.171.25-.305.43-.402.179-.097.376-.169.593-.216.218-.05.437-.089.658-.117.288-.037.522-.065.701-.084.181-.02.313-.054.395-.102.085-.047.127-.13.127-.247V13.6c0-.305-.083-.541-.25-.71-.165-.17-.415-.254-.75-.254-.349 0-.622.077-.82.229a1.354 1.354 0 00-.417.488l-.692-.247c.124-.288.289-.513.495-.674.208-.162.434-.275.68-.34a2.85 2.85 0 01.728-.098c.153 0 .328.018.526.055.2.035.392.108.577.22.188.111.343.279.467.503.124.225.185.526.185.902V16.8h-.729v-.643h-.037c-.05.103-.132.214-.247.331a1.427 1.427 0 01-.46.3 1.774 1.774 0 01-.702.123zm.112-.655c.288 0 .531-.056.729-.17a1.156 1.156 0 00.605-1.004v-.667c-.03.037-.099.071-.204.102a3.43 3.43 0 01-.358.077 16.334 16.334 0 01-.698.093c-.19.025-.367.065-.532.12a.916.916 0 00-.395.244c-.099.107-.148.254-.148.44 0 .252.093.444.28.574.19.127.43.191.72.191z" fill="#000"/><path fill-rule="evenodd" clip-rule="evenodd" d="M103.2 32.7h1.6V22h-1.6v10.7zm14.5-7l-2 4.7-1.8-4.6h-2l3 6.5-1.6 3.6h1.6l4.5-10.2h-1.8.1zm-9.2 5.7c-.5 0-1.2-.2-1.2-1 0-.7 1-1 1.7-1s1 0 1.5.3c-.2 1-1 1.7-2 1.7zm.2-6c-1 0-2.3.6-2.8 1.8l1.3.6c.3-.6 1-.8 1.5-.8.8 0 1.6.5 1.7 1.4-.3 0-1-.3-1.7-.3-1.6 0-3 1-3 2.5 0 1.4 1 2.4 2.6 2.4 1 0 1.6-.6 2-1.2v.8h1.6v-4c0-2-1.4-3-3.3-3l.1-.2zm-10 1.7h-2.2v-3.6h2.3c1.2 0 2 1 2 1.8 0 1-.8 2-2 2l-.1-.2zm0-5H95v10.7h1.5v-4h2.3c1.7 0 3.5-1.4 3.5-3.5 0-2-1.8-3.3-3.5-3.3l-.1.1zm-21 9.4c-1 0-2-1-2-2.2 0-1.3 1-2.2 2-2.2s2 1 2 2.2c0 1.3-1 2.2-2 2.2zm2-5h-.2c-.3-.5-1-1-2-1-1.7 0-3.4 1.8-3.4 3.8 0 2 1.8 3.7 3.6 3.7 1 0 1.6-.5 2-1v.6c0 1.4-.8 2-2 2-1 0-1.6-.6-1.8-1.2l-1.4.6c.4 1 1.5 2.2 3.2 2.2 2 0 3.5-1 3.5-4V26h-1.4v.6l-.1-.1zm2.5 6.3h1.6V22h-1.6v10.8zm4-3.6c0-1.3 1-2 2-2 .6 0 1 .3 1.3.7L86.2 29v.2zm5-1c-.3-1-1.2-2.5-3-2.5-2 0-3.6 1.5-3.6 3.7 0 2 1.6 3.7 3.7 3.7 1.6 0 2.6-1.2 3-1.7l-1.2-1c-.4.7-1 1-1.7 1-1 0-1.4-.2-1.8-1l5-2-.3-.4-.1.2zm-39-1.3v1.5H56c-.2 1-.5 1.5-1 2s-1.4 1-2.8 1c-2.3 0-4-1.7-4-4s1.7-4.2 4-4.2c1.2 0 2 .5 2.8 1.2l1-1c-1-1-2-1.7-3.8-1.7-3.2 0-5.8 2.5-5.8 5.7 0 3 2.6 5.7 5.8 5.7 1.6 0 3-.7 4-1.7s1.3-2.5 1.3-3.7v-1H52l.2.2zm9.5 4.7c-1 0-2-1-2-2.2 0-1.3 1-2.2 2-2.2s2 1 2 2.2c0 1.3-1 2.2-2 2.2zm0-6c-2 0-3.7 1.7-3.7 3.8 0 2 1.7 3.7 3.7 3.7s3.7-1.7 3.7-3.8c0-2-1.7-3.7-3.7-3.7zm8 6c-1 0-2-1-2-2.2 0-1.3 1-2.2 2-2.2s2 1 2 2.2c0 1.3-1 2.2-2 2.2zm0-6c-2 0-3.6 1.7-3.6 3.8 0 2 1.7 3.7 3.7 3.7s3.7-1.7 3.7-3.8c0-2-1.6-3.7-3.7-3.7h-.1z" fill="#000"/><defs><linearGradient id="paint0_linear_543_3480" x1="35.023" y1="21.341" x2="10.16" y2="21.341" gradientUnits="userSpaceOnUse"><stop stop-color="#FEE000"/><stop offset=".194" stop-color="#FCCF0B"/><stop offset=".547" stop-color="#FAB318"/><stop offset=".828" stop-color="#F9A21B"/><stop offset="1" stop-color="#F99B1C"/></linearGradient><linearGradient id="paint1_linear_543_3480" x1="28.616" y1="23.688" x2="12.106" y2="51.58" gradientUnits="userSpaceOnUse"><stop stop-color="#EF4547"/><stop offset="1" stop-color="#C6186D"/></linearGradient><linearGradient id="paint2_linear_543_3480" x1="4.946" y1="-4.748" x2="18.483" y2="17.984" gradientUnits="userSpaceOnUse"><stop stop-color="#279E6F"/><stop offset=".317" stop-color="#4DAB6D"/><stop offset=".74" stop-color="#6ABA6A"/><stop offset="1" stop-color="#74C169"/></linearGradient></defs></svg>
